X: 45
M:6/8
L:1/8
K:G
"Andante cantabile"G/2A/2|B2 A B2 g|dBG A2 B|E2 D EFG|AFD D2 G/2A/2|
g3 d2 c|B>GB c2 d|ede gfe|d2 (3e/2f/2g/2 f2 e|d2 c B/2c/2dD|
EcB ADF|G3-G2||

